X:73
T: Der heimkehrende Braeutigam
N: Q0102A
O: Mitteleuropa, Deutschland (BRD) , Baden
R: Ballade, Ehe - Geloebnis, Betrug
M: 6/8
L: 1/16
K: G
D2 | B,2D2G2B,2D2G2 | B4A2G4
B2 | A3GF2G2E2A2 | D6z4
D2 | c3BA2A2G2F2 | G4B2D4
G2 | E2E2E2G2F2E2 | D6
c4d2 | B3AGBA2G2F2 | G6z4

@@@ Tune index: 1366
